X:3493
T:Cotton Stockings
M:4/4
L:1/8
K:G
B3A||G2B2d2B2|(3ABAG2G4|g4g3f|e2d2d4|g4g3f|e2d2d2B2|c2e2d2B2|A4A2(3BcB|G
2B2d2B2|(3ABAG2G4|g4g3f|e2d2d4|g4g3f|e2d2B2G2|A2G2G2A2|G4||


